icons/cog.svg

<svg xmlns="http://www.w3.org/2000/svg" fill="none" viewBox="0 0 24 24">
  <g stroke="currentColor" stroke-width="2">
    <path d="M18.005 15.98L17.523 15.974L17.217 16.347C16.943 16.682 16.637 16.992 16.301 17.271L15.935 17.577L15.963 19.54C15.9664 19.762 15.8958 19.9788 15.7623 20.1562C15.6289 20.3337 15.4402 20.4616 15.226 20.52L13.407 21.015C13.1904 21.0739 12.9602 21.0582 12.7536 20.9704C12.547 20.8826 12.376 20.7278 12.268 20.531L11.336 18.834L10.858 18.754C10.4335 18.6825 10.0169 18.5704 9.614 18.419L9.16 18.249L8.745 18.501L7.502 19.254C7.31005 19.3703 7.08458 19.4186 6.86184 19.3912C6.6391 19.3638 6.43206 19.2623 6.274 19.103L4.946 17.765C4.78976 17.6073 4.69042 17.4022 4.66363 17.1818C4.63683 16.9615 4.68411 16.7385 4.798 16.548L5.805 14.86L5.64 14.413C5.49071 14.0045 5.37957 13.583 5.308 13.154L5.23 12.679L4.809 12.445L3.536 11.735C3.34132 11.6265 3.18846 11.4561 3.10168 11.2509C3.0149 11.0456 2.99918 10.8172 3.057 10.602L3.557 8.739C3.61461 8.52406 3.74228 8.33447 3.91978 8.20025C4.09728 8.06604 4.31449 7.99487 4.537 7.998L6.477 8.026L6.783 7.653C7.058 7.318 7.363 7.008 7.699 6.729L8.065 6.423L8.037 4.46C8.03363 4.23802 8.10423 4.02122 8.23767 3.84379C8.3711 3.66635 8.5598 3.53837 8.774 3.48L10.593 2.986C10.8095 2.92704 11.0396 2.94262 11.2462 3.03022C11.4527 3.11783 11.6239 3.27238 11.732 3.469L12.664 5.166L13.142 5.246C13.568 5.318 13.984 5.43 14.386 5.581L14.84 5.751L15.255 5.5L16.498 4.746C16.6899 4.62973 16.9154 4.5814 17.1382 4.60879C17.3609 4.63618 17.5679 4.73769 17.726 4.897L19.054 6.235C19.2102 6.39267 19.3096 6.59783 19.3364 6.81816C19.3632 7.0385 19.3159 7.26149 19.202 7.452L18.195 9.14L18.36 9.587C18.508 9.992 18.621 10.419 18.692 10.846L18.77 11.321L19.191 11.555L20.464 12.265C20.6587 12.3735 20.8115 12.5439 20.8983 12.7491C20.9851 12.9544 21.0008 13.1828 20.943 13.398L20.443 15.261C20.3854 15.4759 20.2577 15.6655 20.0802 15.7998C19.9027 15.934 19.6855 16.0051 19.463 16.002L18.005 15.981V15.98Z"/>
    <path d="M14 12C14 13.1046 13.1046 14 12 14C10.8954 14 10 13.1046 10 12C10 10.8954 10.8954 10 12 10C13.1046 10 14 10.8954 14 12Z"/>
  </g>
</svg>

<svg xmlns="http://www.w3.org/2000/svg" fill="none" stroke="currentColor" viewBox="0 0 24 24">
  <path stroke="none" fill="currentColor" d="M13 13.731a2 2 0 11-2-3.462 2 2 0 112 3.462z"/>
  <path stroke="currentColor" stroke-width="2" d="M18.005 15.98l-.482-.006-.306.373c-.274.335-.58.645-.916.924l-.366.306.007.477.021 1.486a1 1 0 01-.737.98l-1.819.495a1 1 0 01-1.139-.484l-.699-1.272-.233-.425-.478-.08a6.7 6.7 0 01-1.244-.335l-.454-.17-.415.252-1.243.753a1 1 0 01-1.228-.151l-1.328-1.338a1 1 0 01-.148-1.217l.762-1.278.245-.41-.165-.447c-.15-.409-.26-.83-.332-1.259l-.078-.475-.421-.234-1.273-.71a1 1 0 01-.479-1.133l.5-1.863a1 1 0 01.98-.741l1.458.021.482.007.306-.373c.275-.335.58-.645.916-.924l.366-.306-.007-.477-.021-1.486a1 1 0 01.737-.98l1.819-.494a1 1 0 011.139.483l.699 1.273.233.424.478.08a6.72 6.72 0 011.244.335l.454.17.415-.251 1.243-.754a1 1 0 011.228.151l1.328 1.338a1 1 0 01.148 1.217L18.44 8.73l-.245.41.165.447c.148.405.261.832.332 1.259l.078.475.421.234 1.273.71a1 1 0 01.479 1.133l-.5 1.863a1 1 0 01-.98.741l-1.458-.021v-.001z"/>
</svg>
